X:1
T:Picardy Arr. Stephan Peters
T:Come, Thou Long Expected Jesus 
T:(Let All Mortal Flesh Keep Silence) 
T:Charles Wesley
T:This Score is in the Public Domain
C:French carol, 17th cent.
Z:Charles Wesley
Z:This Score is in the Public Domain
%%score { 1 | 2 }
L:1/8
M:4/4
K:G
V:1 treble nm="Piano"
V:2 bass 
V:1
"Em" [B,E]2 [B,F]2 [EG]2"C6" [EA]2 |"Em" [GB]4"G" [GB]2"D" [FA]2 |"B/D#" [FB]4"B" !fermata![FB]4 | %3
w: Come, thou long ex-|pec- ted *|Je- sus;|
w: Born thy peo- ple|to de- *|li- ver;|
"Em" [EB]2 [EB]2"Am" [Ec]2 [Ed]2 |"D7" [Fc]4"D" ([DB]2 [FA]2) |"B" [^DB]8 | %6
w: born to set thy|peo- ple *|free.|
w: born a child and|yet a *|king.|
"Em" [B,E]2 [B,F]2 [EG]2"C6" [EA]2 |"Em" [GB]4"G" [DB]2"D" [FA]2 |"B/D#" [FB]4"B" !fermata![^DB]4 | %9
w: From our fears and|sins re- *|lease us;|
w: Born to reign in|us for- *|e- ver;|
"Em" [EB]2 [EB]2"Am" [Ec]2 [Ed]2 |"D7" [Ec]4"D" ([DB]2 [FA]2) |"B" [^DB]8 | %12
w: let us find our|rest in *|thee.|
w: now thy gra- cious|king- dom *|bring!|
"Em" [EB]4 ([Ge]2 [EB]2) |"Am" [CA]6"C" [EG]2 |"Em" [B,E]2 [EG]2 ([EB]2 [EG]2) |"B/D#" [^DF]8 | %16
w: By thine *|own e-|ter- nal spi- *|rit;|
w: By thine *|all suf-|fi- cient me- *|rit;|
"Em" [EB]2 [EB]2 [Ge]2 [EB]2 |"Am/E" [EA]4"B/D#" [^DF]2"B" [DG]2 |"E" [B,E]8 |] %19
w: rule in all our|hearts a- *|lone.|
w: raise us to thy|glo- ri- ous|throne.|
V:2
 [E,G,]2 [E,G,]2 [E,A,]2 [C,A,]2 | [E,B,]4 [D,B,]2 [D,A,]2 | [^D,B,]4 [B,,F,]4 | %3
 [E,G,]2 [E,G,]2 [A,C]2 [A,C]2 | [D,A,]4 [D,A,]2 [D,F,]2 | [B,,F,]8 | %6
 [E,G,]2 [E,G,]2 [E,A,]2 [C,A,]2 | [E,B,]4 [D,B,]2 [D,A,]2 | [^D,B,]4 [B,,F,]4 | %9
 [E,G,]2 [E,G,]2 [A,C]2 [A,C]2 | [D,A,]4 [D,A,]2 [D,F,]2 | [B,,F,]8 | [E,G,]4 [E,B,]2 [E,G,]2 | %13
 [A,,E,]6 [C,G,]2 | [E,G,]2 [E,B,]2 [G,B,]2 [E,B,]2 | [^D,B,]8 | [E,G,]2 [E,G,]2 [E,B,]2 [E,G,]2 | %17
 [E,C]4 [^D,B,]2 [B,,F,]2 | [E,,G,]8 |] %19

